src/resources/icons-ec/src/all/print.svg

<?xml version="1.0" encoding="UTF-8"?>
<svg width="48px" height="48px" viewBox="0 0 48 48" version="1.1" xmlns="http://www.w3.org/2000/svg" xmlns:xlink="http://www.w3.org/1999/xlink">
    <title>EC/Icons/General/2XL_48x48px/Icon-Print</title>
    <defs>
        <path d="M38.9995687,22 C37.3417005,22 36,20.6583637 36,19 C36,17.3450853 37.3417005,16 38.9995687,16 C40.6580118,16 42,17.3447979 42,19 C42,20.6580762 40.6580118,22 38.9995687,22 L38.9995687,22 Z M46,12 L46,34 L38,34 L38,46 L10,46 L10,34 L2,34 L2,12 L46,12 Z M12,26 L12,42 L36,42 L36,26 L12,26 Z M16,32 L16,30 L32,30 L32,32 L16,32 Z M12,6 L12,10 L10,10 L10,2 L38,2 L38,10 L36,10 L36,6 L12,6 Z M16,38 L16,36 L28,36 L28,38 L16,38 Z" id="path-1"></path>
    </defs>
    <g id="EC/Icons/General/2XL_48x48px/Icon-Print" stroke="none" stroke-width="1">
        <mask id="mask-2">
            <use xlink:href="#path-1"></use>
        </mask>
        <use id="Print" xlink:href="#path-1"></use>
    </g>
</svg>

<?xml version="1.0" encoding="UTF-8" ?>
<svg xmlns="http://www.w3.org/2000/svg" viewBox="0 0 48 48"><defs><style
    >.cls-1{fill:none;}.cls-2{fill-rule:evenodd;}</style></defs><g
    id="transparant_bg"
  ><rect class="cls-1" y="0" width="48" height="48" /></g><g id="Layer_1"><path
      class="cls-2"
      d="M39,22c-1.66,0-3-1.34-3-3s1.34-3,3-3,3,1.34,3,3-1.34,3-3,3Zm7-10v22h-8v12H10v-12H2V12H46ZM12,26v16h24V26H12Zm4,6v-2h16v2H16ZM12,6v4h-2V2h28V10h-2V6H12Zm4,32v-2h12v2h-12Z"
    /></g></svg>
